X:327
T:Spanish Jig
R:jig 48
M:6/8
L:1/8
Q:1/8=140
K:G
|:ABc d2d|cBA G3|ABc d2e|c2d B2G|
ABc d2d|cBA GAB|c2B ABc|BAB G3:|
|:Bcd e2e|edc B3|e2d c2B|ABc d3|
Bcd e2e|edc B3|e2d c2B|ABA G3:|
|:def g2B|BAG A3|def g2B|AGA B2G|
def g2B|BAG A3|def g2B|ABA G3:|]

